history.svg

<svg width="24" height="24" viewBox="0 0 24 24" fill="none" xmlns="http://www.w3.org/2000/svg">
<path fill-rule="evenodd" clip-rule="evenodd" d="M12.2517 4.00447C9.61727 3.91248 7.23565 5.09539 5.70376 7H7.5C8.05228 7 8.5 7.44772 8.5 8C8.5 8.55229 8.05228 9 7.5 9H3.51C2.95219 9 2.5 8.54781 2.5 7.99V4C2.5 3.44772 2.94772 3 3.5 3C4.05228 3 4.5 3.44772 4.5 4V5.32945C6.41418 3.19897 9.22881 1.89769 12.3215 2.00569C17.8533 2.19887 22.1868 6.82719 21.9939 12.3496C21.8011 17.8719 17.1553 22.1867 11.6235 21.9935C6.46706 21.8134 2.35329 17.7809 1.97346 12.7613C1.93179 12.2106 2.34445 11.7304 2.89516 11.6887C3.44587 11.647 3.92609 12.0597 3.96776 12.6104C4.27117 16.6201 7.56194 19.8505 11.6933 19.9947C16.127 20.1496 19.8411 16.6925 19.9952 12.2798C20.1493 7.86705 16.6854 4.1593 12.2517 4.00447ZM13 8.00002C13 7.44774 12.5523 7.00002 12 7.00002C11.4477 7.00002 11 7.44774 11 8.00002V11.9959C11 12.2638 11.1064 12.5207 11.2958 12.7101L14.2929 15.7071C14.6834 16.0977 15.3166 16.0977 15.7071 15.7071C16.0976 15.3166 16.0976 14.6834 15.7071 14.2929L13 11.5858V8.00002Z" fill="black"/>
</svg>

<svg xmlns="http://www.w3.org/2000/svg" width="24" height="24" viewBox="0 0 24 24" fill="none"><title>Icon / Utility / history</title><path fill-rule="evenodd" clip-rule="evenodd" d="M12.252 4.004A8.023 8.023 0 0 0 5.704 7H7.5a1 1 0 0 1 0 2H3.51A1.01 1.01 0 0 1 2.5 7.99V4a1 1 0 0 1 2 0v1.33a10.019 10.019 0 0 1 7.822-3.324c5.531.193 9.865 4.821 9.672 10.344-.193 5.522-4.839 9.837-10.37 9.644-5.157-.18-9.27-4.213-9.65-9.233a1 1 0 0 1 1.994-.15c.303 4.01 3.594 7.24 7.725 7.384 4.434.155 8.148-3.303 8.302-7.715.154-4.413-3.31-8.12-7.743-8.276ZM13 8a1 1 0 1 0-2 0v3.996c0 .268.106.525.296.714l2.997 2.997a1 1 0 1 0 1.414-1.414L13 11.586V8Z" fill="#000"/></svg>
